X:1
T:Get Right with God
T:Get Right with God
T:George Henry Sandison
T:George Henry Sandison, 1906
T:Public Domain Courtesy of the Cyber Hymnal™
T:Public Domain Courtesy of the Cyber Hymnal™
C:George Henry Sandison
Z:Public Domain
Z:Courtesy of the Cyber Hymnal™
%%score ( 1 2 ) ( 3 4 )
L:1/8
M:3/4
K:G
V:1 treble 
V:2 treble 
V:3 bass 
V:4 bass 
V:1
 D2 | [DG]2 [DG]3 [FA] | [GB]2 [GB]2 [Gd]2 | [Gd]2 [Dc]2 [DB]2 | [FA]4 D2 | [DF]2 [DF]3 [DG] | %6
w: 1.~In|dark- ness I|lin- gered ’mid|doubt and des-|pair, Sin’s|bond- age long|
w: 2.~The|world and its|plea- sures did|tempt me to|stray, I|saw not the|
w: 3.~The|path- way to|Cal- v’ry is|toil- some and|hard, Yet|tread it, O|
w: 4.~Re-|pent while He|calls thee, while|yet it is|day, Take|with thee His|
 [FA]2 [FA]2 [Ac]2 | [Ac]2 [GB]2 [FA]2 | [GB]4 D2 | [DG]2 [DG]3 [FA] | [GB]2 [GB]2 [Gd]2 | %11
w: held me a|cap- tive to|care; But|Je- sus de-|liv- ered my|
w: dan- ger that|lurked on the|way; The|toils closed a-|round me, I|
w: faint one, and|find thy re-|ward; There|lay down thy|bur- den, and|
w: gift of free|par- don a-|way; Take|Christ for thy|Sav- ior, Re-|
 [Gd]2 [Dc]2 [DB]2 | [CE]4 [EG]2 | [EG]2 [DF]2 [CE]2 | [B,D]2 [DG]2 [EA]2 | [DB]2 [GB]2 [FA]2 | %16
w: soul from its|chains, His|pre- cious blood|cleansed me from|sin’s guilt- y|
w: knew no re-|lease, But|Je- sus has|found me and|giv’n me His|
w: wash in the|stream That|flows like a|fount- ain, thy|soul to re-|
w: deem- er and|friend, His|love will sus-|tain thee se-|cure to the|
 G4 z2 ||"^Refrain" [Gd]2 [Gd]3 [G^c] | [Gd]4 [DG]2 | [DG]2 [FA]3 G | F4 z2 | [Fd]2 [Fd]3 [G^c] | %22
w: stains.||||||
w: peace.|Get right with|God! His|par- don is|free,|Get right with|
w: deem.||||||
w: end.||||||
 [Dd]4 [FA]2 | [FA]2 [GB]2 [Ac]2 | [GB]4 D2 | [DG]2 [DG]2 [FA]2 | [GB]2 [GB]2 [Gd]2 | %27
w: |||||
w: God, He’s|wait- ing for|thee; Our|Je- sus is|call- ing: “Oh,|
w: |||||
w: |||||
 [Gd]2 [Dc]2 [DB]2 | [CE]4 z2 | [EG]2 [DF]2 [CE]2 | [B,D]2 [DG]3 [EA] | [DB]2 [FB]3 [FA] | G4 |] %33
w: ||||||
w: come un- to|Me”;|Take Him, O|sin- ner, and|get right with|God.|
w: ||||||
w: ||||||
V:2
 D2 | x6 | x6 | x6 | x4 D2 | x6 | x6 | x6 | x4 D2 | x6 | x6 | x6 | x6 | x6 | x6 | x6 | G4 x2 || %17
 x6 | x6 | x5 G | F4 x2 | x6 | x6 | x6 | x4 D2 | x6 | x6 | x6 | x6 | x6 | x6 | x6 | G4 |] %33
V:3
 [G,,B,]2 | [G,,B,]2 [B,,G,]3 [D,D] | [G,D]2 [G,D]2 [G,B,]2 | [G,B,]2 [F,A,]2 G,2 | %4
 [D,D]4 [D,F,]2 | [D,A,]2 [D,A,]3 [D,B,] | [D,D]2 [D,D]2 [D,D]2 | [F,D]2 [G,D]2 [D,D]2 | %8
 [G,D]4 [G,B,]2 | [G,B,]2 [B,,G,]3 [D,D] | [G,D]2 [G,D]2 [G,B,]2 | [G,,B,]2 [A,,F,]2 [B,,G,]2 | %12
 [C,G,]4 [C,G,]2 | [C,C]2 [C,G,]2 [C,G,]2 | [G,,G,]2 [B,,G,]2 [C,G,]2 | [D,G,]2 [D,D]2 [D,C]2 | %16
 [G,,B,]4 z2 || [G,B,]2 [G,B,]3 [G,^A,] | [G,B,]4 [B,,G,]2 | [D,B,]2 [D,C]3 [D,B,] | [D,A,]4 z2 | %21
 [D,A,]2 [D,A,]3 [E,A,] | [F,A,]4 [D,D]2 | [D,D]2 [D,D]2 [D,D]2 | [G,D]4 [G,B,]2 | %25
 [G,B,]2 [B,,G,]2 [D,D]2 | [G,D]2 [G,D]2 [G,,B,]2 | [G,,B,]2 [A,,F,]2 [B,,G,]2 | [C,G,]4 z2 | %29
 [C,G,C]2 [C,G,]2 [C,G,]2 | [G,,G,]2 [B,,G,]3 [C,G,] | [D,G,]2 [D,D]3 [D,C] | [G,,B,]4 |] %33
V:4
 x2 | x6 | x6 | x4 G,2 | x6 | x6 | x6 | x6 | x6 | x6 | x6 | x6 | x6 | x6 | x6 | x6 | x6 || x6 | %18
 x6 | x6 | x6 | x6 | x6 | x6 | x6 | x6 | x6 | x6 | x6 | x6 | x6 | x6 | x4 |] %33

